X: 1
T: Lady Louisa Macdonald's Strathspey
C: Traditional
R: strathspey
Z: 2011 John Chambers <jc:trillian.mit.edu>
M: C
L: 1/16
K: F
A2 |:\
"F"F3G F3d "A/F"cA3 c3g  |  "F"F3G F3A "Gm"BG3 "C"G3A  |\
"F"F3G F3d  "Am"cA3 A3c  | "Dm"a3g f3F "Am"Ac3    c2A2 |
"F"F3G F3d "A/F"cA3 c3g  |  "F"F3G F3A "Gm"BG3 "C"G3A  |\
"F"F3G F3d  "Am"cA3 A3c  | "Dm"d3e f3g "Am"a3g    f2fg ||
"F"a3g f3F "A/F"Ac3 c2fg | "F"a3g "Dm"f3d "C7"eg3 g2fg |\
"F"a3g f3c "Bb"def2 "Am"c3A | "Dm"d3e f3d "F"cA3 "C7"A2fg |
"F"a3g f3F "Am"Ac3 "C7"c2fg | "F"a3g f3d "C"eg3 g2fg |\
"F"a3g f3c "Bb"def2 "Am"c3A |1 "Gm"Bcd2 "C7"G3B "F"AF3 F2A2 :|2 "Gm"Bcd2 "C7"G3B "F"AF3 "F"F4 |]
%%center Book18/LadyLouisaMacdonaldsStrathspey-JC.abc

%%sep 1 1 500
%%sep 1 1 500

